public/assets/icons/ic_profile4.svg

<svg width="45" height="45" viewBox="0 0 45 45" fill="none" xmlns="http://www.w3.org/2000/svg">
<rect width="45" height="45" rx="22.5" fill="#18191C"/>
<path d="M16.0756 34.7286H13.2756L15.7756 35.6286L14.6756 37.4286L17.9756 36.0286L23.8756 40.3286C25.0756 41.2286 25.3756 40.6286 31.3756 33.0286L19.8756 33.5286L16.0756 34.7286Z" fill="#DD3E59"/>
<path d="M20.2757 35.0285C11.3757 35.3285 6.27569 30.0285 8.77569 22.8285C7.27569 14.8285 9.27569 12.2285 9.67569 11.7285C10.0757 11.2285 12.1757 13.0285 14.2757 14.6285C19.6757 10.4285 26.4757 9.92852 31.3757 15.1285C36.6757 12.8285 37.6757 13.3285 38.2757 13.3285C38.8757 13.3285 39.0757 16.5285 38.5757 19.2285C38.2524 20.8893 37.5698 22.4594 36.5757 23.8285C37.5757 28.3285 35.9757 34.5285 20.2757 35.0285Z" fill="#F6CA9D"/>
<path d="M34.0758 26.2285C32.9758 24.9285 31.1758 24.7285 27.8758 25.1285C24.5758 25.5285 23.5758 24.8285 22.4758 23.3285C22.1243 22.7796 21.6339 22.3332 21.0545 22.0347C20.475 21.7362 19.8269 21.5961 19.1758 21.6285C18.0758 21.6285 16.6758 22.0285 15.9758 24.7285C10.3759 24.7285 8.37588 29.0285 9.57588 30.9285C10.7758 32.8285 15.2758 35.2285 20.2758 35.0285C27.0758 34.8285 31.1758 33.5285 33.6758 31.8285C34.0905 31.5011 34.4323 31.0909 34.6795 30.624C34.9267 30.1571 35.0738 29.6437 35.1114 29.1168C35.1491 28.5898 35.0764 28.0608 34.8981 27.5635C34.7198 27.0662 34.4398 26.6115 34.0758 26.2285Z" fill="white"/>
<path d="M35.6756 22.0286C34.8201 19.9761 33.6751 18.0566 32.2756 16.3286C33.8169 15.3313 35.5575 14.6828 37.3756 14.4286C37.6756 14.5286 38.3756 17.6286 35.6756 22.0286Z" fill="white"/>
<path d="M24.7027 16.8676C24.8204 16.3846 24.2634 15.8341 23.4585 15.6379C22.6537 15.4417 21.9058 15.6741 21.7881 16.157C21.6703 16.64 22.2274 17.1905 23.0322 17.3867C23.8371 17.5829 24.585 17.3505 24.7027 16.8676Z" fill="white"/>
<path d="M16.1693 17.9701C16.8283 17.4681 17.1455 16.7762 16.8778 16.4247C16.61 16.0733 15.8588 16.1953 15.1998 16.6973C14.5408 17.1993 14.2236 17.8912 14.4913 18.2427C14.7591 18.5942 15.5104 18.4721 16.1693 17.9701Z" fill="white"/>
<path d="M23.3757 22.2285C23.4241 22.0352 23.5241 21.8587 23.665 21.7178C23.8059 21.5769 23.9824 21.4769 24.1757 21.4285C24.5501 21.2499 24.9769 21.2143 25.3757 21.3285C25.7403 21.3991 26.0873 21.5416 26.3963 21.7476C26.7053 21.9537 26.9703 22.2191 27.1757 22.5285C27.1757 22.6285 27.1757 22.8285 27.0757 22.8285H26.8757C26.3693 22.4695 25.7881 22.2301 25.1757 22.1285H24.4757C24.1829 22.1355 23.901 22.2412 23.6757 22.4285C23.4757 22.4285 23.3757 22.4285 23.3757 22.3285C23.3757 22.2285 23.2757 22.2285 23.3757 22.2285Z" fill="#5F131D"/>
<path d="M12.0759 23.4285C12.1853 23.1046 12.3956 22.8242 12.6759 22.6285L13.5759 22.1285C13.9541 22.0892 14.3357 22.1586 14.6759 22.3285C14.8373 22.3975 14.9777 22.5077 15.0831 22.6481C15.1884 22.7886 15.2549 22.9542 15.2759 23.1285C15.3759 23.3285 15.2759 23.4285 15.0759 23.4285H14.9759C14.8028 23.2987 14.5923 23.2285 14.3759 23.2285H13.1759L12.4759 23.6285C12.4505 23.6455 12.4216 23.6564 12.3914 23.6605C12.3611 23.6646 12.3303 23.6617 12.3014 23.6521C12.2724 23.6424 12.2461 23.6262 12.2243 23.6048C12.2026 23.5834 12.186 23.5573 12.1759 23.5285C12.0759 23.5285 12.0759 23.5285 12.0759 23.4285Z" fill="#5F131D"/>
<path d="M19.0758 24.3286C19.9594 24.3286 20.6758 23.9257 20.6758 23.4286C20.6758 22.9316 19.9594 22.5286 19.0758 22.5286C18.1921 22.5286 17.4758 22.9316 17.4758 23.4286C17.4758 23.9257 18.1921 24.3286 19.0758 24.3286Z" fill="#892B25"/>
<path d="M14.8756 27.7285C14.6742 27.7452 14.4716 27.718 14.2818 27.649C14.0919 27.5799 13.9192 27.4706 13.7756 27.3285C13.6373 27.1058 13.5559 26.8525 13.5384 26.591C13.521 26.3294 13.5681 26.0676 13.6756 25.8285C13.719 25.7389 13.7944 25.6688 13.8869 25.6318C13.9793 25.5948 14.0823 25.5936 14.1756 25.6285C14.2789 25.7401 14.3483 25.8789 14.3756 26.0285C14.1756 26.4285 14.1756 26.7285 14.2756 26.8285C14.3756 26.9285 14.7756 27.0285 15.1756 27.0285L17.4756 26.2285L18.6756 25.9285L20.1756 26.2285L23.1756 26.8285C24.3756 27.0285 25.2756 26.9285 25.4756 26.6285C25.6756 26.3285 25.6756 26.4285 25.4756 26.0285C25.2756 25.6285 25.5756 25.6285 25.6756 25.6285C25.7688 25.5936 25.8718 25.5948 25.9643 25.6318C26.0567 25.6688 26.1321 25.7389 26.1756 25.8285C26.264 26.026 26.2921 26.2452 26.2565 26.4587C26.221 26.6721 26.1232 26.8703 25.9756 27.0285C25.5756 27.5285 24.6756 27.7285 23.0756 27.5285L19.9756 26.8285L18.6756 26.5285L17.7756 26.9285C16.96 27.2211 16.1245 27.455 15.2756 27.6285L14.8756 27.7285Z" fill="#892B25"/>
<path d="M18.6757 26.5286C18.5961 26.5286 18.5198 26.497 18.4636 26.4407C18.4073 26.3845 18.3757 26.3082 18.3757 26.2286V24.3286C18.4757 24.1286 18.5757 24.0286 18.7757 24.0286C18.9757 24.0286 19.0757 24.2286 19.0757 24.4286L18.8757 26.2286C18.8794 26.2935 18.8619 26.3579 18.8258 26.412C18.7897 26.4661 18.737 26.507 18.6757 26.5286Z" fill="#892B25"/>
</svg>

<svg xmlns="http://www.w3.org/2000/svg" width="45" height="45" fill="none"><rect width="45" height="45" fill="#18191C" rx="22.5"/><path fill="#DD3E59" d="M16.08 34.73h-2.8l2.5.9-1.1 1.8 3.3-1.4 5.9 4.3c1.2.9 1.5.3 7.5-7.3l-11.5.5-3.8 1.2Z"/><path fill="#F6CA9D" d="M20.28 35.03c-8.9.3-14-5-11.5-12.2-1.5-8 .5-10.6.9-11.1s2.5 1.3 4.6 2.9c5.4-4.2 12.2-4.7 17.1.5 5.3-2.3 6.3-1.8 6.9-1.8.6 0 .8 3.2.3 5.9a11.6 11.6 0 0 1-2 4.6c1 4.5-.6 10.7-16.3 11.2Z"/><path fill="#fff" d="M34.08 26.23c-1.1-1.3-2.9-1.5-6.2-1.1-3.3.4-4.3-.3-5.4-1.8a3.7 3.7 0 0 0-3.3-1.7c-1.1 0-2.5.4-3.2 3.1-5.6 0-7.6 4.3-6.4 6.2 1.2 1.9 5.7 4.3 10.7 4.1 6.8-.2 10.9-1.5 13.4-3.2a3.8 3.8 0 0 0 .4-5.6ZM35.68 22.03a23.3 23.3 0 0 0-3.4-5.7 12.6 12.6 0 0 1 5.1-1.9c.3.1 1 3.2-1.7 7.6ZM24.7 16.87c.12-.49-.44-1.04-1.24-1.23-.8-.2-1.55.03-1.67.52-.12.48.44 1.03 1.24 1.23.8.2 1.55-.04 1.67-.52ZM16.17 17.97c.66-.5.98-1.2.7-1.55-.26-.35-1.01-.22-1.67.28-.66.5-.98 1.2-.7 1.54.26.35 1.01.23 1.67-.27Z"/><path fill="#5F131D" d="M23.38 22.23a1.1 1.1 0 0 1 .8-.8c.37-.18.8-.22 1.2-.1a2.8 2.8 0 0 1 1.8 1.2c0 .1 0 .3-.1.3h-.2a4.1 4.1 0 0 0-1.7-.7h-.7c-.3 0-.58.11-.8.3-.2 0-.3 0-.3-.1s-.1-.1 0-.1ZM12.08 23.43c.1-.33.32-.6.6-.8l.9-.5a2 2 0 0 1 1.1.2 1 1 0 0 1 .6.8c.1.2 0 .3-.2.3h-.1a1 1 0 0 0-.6-.2h-1.2l-.7.4a.2.2 0 0 1-.3-.1c-.1 0-.1 0-.1-.1Z"/><path fill="#892B25" d="M19.08 24.33c.88 0 1.6-.4 1.6-.9s-.72-.9-1.6-.9c-.89 0-1.6.4-1.6.9s.71.9 1.6.9ZM14.88 27.73a1.4 1.4 0 0 1-1.1-.4 1.6 1.6 0 0 1-.1-1.5.4.4 0 0 1 .5-.2c.1.11.17.25.2.4-.2.4-.2.7-.1.8.1.1.5.2.9.2l2.3-.8 1.2-.3 1.5.3 3 .6c1.2.2 2.1.1 2.3-.2.2-.3.2-.2 0-.6-.2-.4.1-.4.2-.4a.4.4 0 0 1 .5.2 1.1 1.1 0 0 1-.2 1.2c-.4.5-1.3.7-2.9.5l-3.1-.7-1.3-.3-.9.4c-.82.3-1.66.52-2.5.7l-.4.1Z"/><path fill="#892B25" d="M18.68 26.53a.3.3 0 0 1-.3-.3v-1.9c.1-.2.2-.3.4-.3s.3.2.3.4l-.2 1.8a.3.3 0 0 1-.2.3Z"/></svg>
